packages/components/bolt-icons/src/svgs/product/product/platform/workforce-intelligence.svg

<?xml version="1.0" encoding="UTF-8" standalone="no"?>
<svg width="32px" height="32px" viewBox="0 0 32 32" version="1.1" xmlns="http://www.w3.org/2000/svg" xmlns:xlink="http://www.w3.org/1999/xlink">
    <!-- Generator: Sketch 48.2 (47327) - http://www.bohemiancoding.com/sketch -->
    <title>Icon/product/Platform/workforce-intelligence</title>
    <desc>Created with Sketch.</desc>
    <defs></defs>
    <g id="Symbols" stroke="none" stroke-width="1" fill="none" fill-rule="evenodd">
        <g id="Icon/product/Platform/workforce-intelligence" fill="#000000">
            <path d="M30,18 L25.287,18 L27.287,20 L30,20 L30,23 C30,23.667 29.666,24 29,24 L3,24 C2.333,24 2,23.667 2,23 L2,20 L9.684,20 C8.95,19.43 8.303,18.757 7.763,18 L2,18 L2,3 C2,2.334 2.333,2 3,2 L29,2 C29.666,2 30,2.334 30,3 L30,18 Z M12,30 L20,30 L20,26 L12,26 L12,30 Z M31.437,0.563 C31.062,0.188 30.583,0 30,0 L2,0 C1.416,0 0.937,0.188 0.562,0.563 C0.187,0.938 0,1.417 0,2 L0,24 C0,24.584 0.187,25.063 0.562,25.438 C0.937,25.813 1.416,26 2,26 L10,26 L10,30 L8,30 L8,32 L24,32 L24,30 L22,30 L22,26 L30,26 C30.583,26 31.062,25.813 31.437,25.438 C31.812,25.063 32,24.584 32,24 L32,2 C32,1.417 31.812,0.938 31.437,0.563 Z" id="Page-1"></path>
            <path d="M15.5176,18.0351 C12.4756,18.0351 9.9996,15.5601 9.9996,12.5171 C9.9996,9.4751 12.4756,7.0001 15.5176,7.0001 C18.5596,7.0001 21.0356,9.4751 21.0356,12.5171 C21.0356,15.5601 18.5596,18.0351 15.5176,18.0351 M21.4856,17.0711 C22.4536,15.8061 23.0356,14.2301 23.0356,12.5171 C23.0356,8.3721 19.6636,5.0001 15.5176,5.0001 C11.3716,5.0001 7.9996,8.3721 7.9996,12.5171 C7.9996,16.6621 11.3716,20.0351 15.5176,20.0351 C17.2306,20.0351 18.8056,19.4531 20.0716,18.4851 L24.2926,22.7071 C24.4886,22.9021 24.7446,23.0001 24.9996,23.0001 C25.2556,23.0001 25.5116,22.9021 25.7066,22.7071 C26.0976,22.3161 26.0976,21.6831 25.7066,21.2931 L21.4856,17.0711 Z" id="Fill-1"></path>
        </g>
    </g>
</svg>

<svg id="ea7a4172-fb87-42f7-bc35-133d639c41a3" data-name="Layer 1" xmlns="http://www.w3.org/2000/svg" viewBox="0 0 32 32"><title>workforce-intelligence</title><path id="b99cdd19-44d7-47bf-92eb-814fadf3cb58" data-name="Page-1" d="M30,18H25.3l2,2H30v3c0,.7-.3,1-1,1H3c-.7,0-1-.3-1-1V20H9.7a9,9,0,0,1-1.9-2H2V3c0-.7.3-1,1-1H29c.7,0,1,.3,1,1ZM12,30h8V26H12ZM31.4.6A1.68,1.68,0,0,0,30,0H2A1.68,1.68,0,0,0,.6.6,2.25,2.25,0,0,0,0,2V24a1.68,1.68,0,0,0,.6,1.4A2.25,2.25,0,0,0,2,26h8v4H8v2H24V30H22V26h8a1.68,1.68,0,0,0,1.4-.6A2.25,2.25,0,0,0,32,24V2A1.68,1.68,0,0,0,31.4.6Z" fill="#1f2555" fill-rule="evenodd"/><path id="b32fc0c3-6292-4b59-adb8-0a8391ad9a64" data-name="Fill-1" d="M15.5,18A5.5,5.5,0,1,1,21,12.5,5.42,5.42,0,0,1,15.5,18m6-.9a7.34,7.34,0,0,0,1.6-4.6A7.64,7.64,0,0,0,15.5,5a7.5,7.5,0,1,0,4.6,13.4l4.2,4.2a1.08,1.08,0,0,0,.7.3.91.91,0,0,0,.7-.3,1,1,0,0,0,0-1.4Z" fill="#1f2555" fill-rule="evenodd"/></svg>
